dist/img/icon-top-form-order.svg

<svg width="80" height="81" viewBox="0 0 80 81" fill="none" xmlns="http://www.w3.org/2000/svg">
<g filter="url(#filter0_d_1041_13753)">
<circle cx="40" cy="35.9492" r="25" fill="white"/>
</g>
<circle cx="40" cy="35.9492" r="20" fill="#83C150"/>
<path fill-rule="evenodd" clip-rule="evenodd" d="M45.7929 25.8634L36.2929 35.3634C36.1647 35.4916 36.0738 35.6522 36.0299 35.828L35.0299 39.828C34.8468 40.5604 35.5102 41.2238 36.2425 41.0407L40.2425 40.0407C40.4184 39.9967 40.5789 39.9058 40.7071 39.7776L50.2071 30.2776C51.4261 29.0587 51.4261 27.0824 50.2071 25.8634C48.9882 24.6445 47.0118 24.6445 45.7929 25.8634ZM48.88 27.3754C49.2286 27.8156 49.1995 28.4568 48.7929 28.8634L39.488 38.1672L37.374 38.6962L37.903 36.5812L47.2071 27.2776C47.645 26.8397 48.355 26.8397 48.7929 27.2776L48.88 27.3754ZM41 27.9492C41 27.3969 40.5523 26.9492 40 26.9492H33.7778L33.6086 26.9543C32.1532 27.0417 31 28.2497 31 29.727V42.1714L31.0051 42.3407C31.0925 43.796 32.3005 44.9492 33.7778 44.9492H46.2222L46.3914 44.9441C47.8468 44.8567 49 43.6487 49 42.1714V35.9492L48.9933 35.8326C48.9355 35.3353 48.5128 34.9492 48 34.9492C47.4477 34.9492 47 35.3969 47 35.9492V42.1714L46.9929 42.277C46.9414 42.6566 46.616 42.9492 46.2222 42.9492H33.7778L33.6722 42.9421C33.2926 42.8906 33 42.5652 33 42.1714V29.727L33.0071 29.6215C33.0586 29.2418 33.384 28.9492 33.7778 28.9492H40L40.1166 28.9425C40.614 28.8847 41 28.4621 41 27.9492Z" fill="white"/>
<defs>
<filter id="filter0_d_1041_13753" x="0" y="0.949219" width="80" height="80" filterUnits="userSpaceOnUse" color-interpolation-filters="sRGB">
<feFlood flood-opacity="0" result="BackgroundImageFix"/>
<feColorMatrix in="SourceAlpha" type="matrix" values="0 0 0 0 0 0 0 0 0 0 0 0 0 0 0 0 0 0 127 0" result="hardAlpha"/>
<feOffset dy="5"/>
<feGaussianBlur stdDeviation="7.5"/>
<feColorMatrix type="matrix" values="0 0 0 0 0 0 0 0 0 0 0 0 0 0 0 0 0 0 0.1 0"/>
<feBlend mode="normal" in2="BackgroundImageFix" result="effect1_dropShadow_1041_13753"/>
<feBlend mode="normal" in="SourceGraphic" in2="effect1_dropShadow_1041_13753" result="shape"/>
</filter>
</defs>
</svg>

<svg width="80" height="81" fill="none" xmlns="http://www.w3.org/2000/svg"><g filter="url(#filter0_d_1041_13753)"><circle cx="40" cy="35.949" r="25" fill="#fff"/></g><circle cx="40" cy="35.949" r="20" fill="#83C150"/><path fill-rule="evenodd" clip-rule="evenodd" d="M45.793 25.863l-9.5 9.5a1 1 0 00-.263.465l-1 4a1 1 0 001.212 1.213l4-1a1 1 0 00.465-.263l9.5-9.5a3.121 3.121 0 10-4.414-4.415zm3.087 1.512a1.12 1.12 0 01-.087 1.488l-9.305 9.304-2.114.53.529-2.116 9.304-9.303a1.121 1.121 0 011.586 0l.087.097zM41 27.95a1 1 0 00-1-1h-6.222l-.17.005A2.778 2.778 0 0031 29.727v12.444l.005.17a2.778 2.778 0 002.773 2.608h12.444l.17-.005A2.778 2.778 0 0049 42.171V35.95l-.007-.116A1 1 0 0047 35.95v6.222l-.007.106a.778.778 0 01-.77.672H33.777l-.106-.007a.778.778 0 01-.672-.77V29.726l.007-.105a.778.778 0 01.77-.673H40l.117-.007A1 1 0 0041 27.95z" fill="#fff"/><defs><filter id="filter0_d_1041_13753" x="0" y=".949" width="80" height="80" filterUnits="userSpaceOnUse" color-interpolation-filters="sRGB"><feFlood flood-opacity="0" result="BackgroundImageFix"/><feColorMatrix in="SourceAlpha" values="0 0 0 0 0 0 0 0 0 0 0 0 0 0 0 0 0 0 127 0" result="hardAlpha"/><feOffset dy="5"/><feGaussianBlur stdDeviation="7.5"/><feColorMatrix values="0 0 0 0 0 0 0 0 0 0 0 0 0 0 0 0 0 0 0.1 0"/><feBlend in2="BackgroundImageFix" result="effect1_dropShadow_1041_13753"/><feBlend in="SourceGraphic" in2="effect1_dropShadow_1041_13753" result="shape"/></filter></defs></svg>
